X: 9567
T: David Adams
R: reel
M: 4/4
K: Amajor
A2cA GABc|dcBA GEFG|A2cA Bcdf|ecdB cAAE|
A2cA GABc|dcBA GEFG|AcEc ABcd|1 ecdB cAAE:|2 ecdB cAAg||
|:aAag fddf|bBba geeg|aAag fdaf|ecdB cAAg|
a2ag fddf|b2ba geeg|agae faea|1 ecdB cAAg:|2 ecdB cAAE||

